X: 4176
T: Blue Ribbon, The
R: polka
M: 2/4
K: Amajor
|:c2 dc/d/|ea d>f|ea e/f/e/d/|cA BA|
c2 dc/d/|ea d>f|ea e/f/e/d/|cA A2:|
|:a2 fe/f/|ac d>f|ea e/f/e/d/|cA BA|
[1 a2 fe/f/|ac d>f|ea e/f/e/d/|cA A2:|
[2 c2 dc/d/|ea d>f|ea e/f/e/d/|cA A2||

